static/images/Logo_Small.svg

<?xml version="1.0" encoding="UTF-8"?>
<svg width="182px" height="42px" viewBox="0 0 182 42" version="1.1" xmlns="http://www.w3.org/2000/svg" xmlns:xlink="http://www.w3.org/1999/xlink">
    <!-- Generator: Sketch 60 (88103) - https://sketch.com -->
    <title>Logo_Small</title>
    <desc>Created with Sketch.</desc>
    <defs>
        <polygon id="path-1" points="0.000214493009 0.000375362765 143.357475 0.000375362765 143.357475 43.2453833 0.000214493009 43.2453833"></polygon>
    </defs>
    <g id="Web" stroke="none" stroke-width="1" fill="none" fill-rule="evenodd">
        <g id="Loil_Signup_BRD_v10" transform="translate(-775.000000, -39.000000)">
            <g id="Logo_Small" transform="translate(775.000000, 39.000000)">
                <g id="Group-6" transform="translate(38.302323, 0.000000)">
                    <g id="Group-3">
                        <mask id="mask-2" fill="white">
                            <use xlink:href="#path-1"></use>
                        </mask>
                        <g id="Clip-2"></g>
                        <path d="M137.191015,30.869673 C134.274447,30.869673 131.929502,28.7724676 131.147675,26.3899865 C130.779283,25.3191301 131.643154,24.2102013 132.710793,23.9619256 C133.819722,23.7586935 134.601549,24.5405205 135.1351,25.5668696 C135.709941,26.6345085 136.205956,26.7996681 137.191015,26.7996681 C138.341234,26.7996681 139.287685,25.8564351 139.287685,24.6611728 C139.287685,23.5114903 138.341234,22.5677211 137.191015,22.5677211 C135.547999,22.5677211 133.984881,21.9097638 132.835199,20.7568638 C131.643154,19.6061088 131.027023,18.042991 131.027023,16.4010471 C131.027023,12.987927 133.778432,10.2338368 137.191015,10.2338368 C140.069512,10.2338368 142.700268,12.2066363 143.10995,14.5102912 C143.3164,15.61922 142.658978,16.7276127 141.55005,16.9345984 C140.437903,17.1823378 139.49467,16.4418007 139.122525,15.4127705 C138.878003,14.7548132 138.178756,14.3038417 137.191015,14.3038417 C136.040797,14.3038417 135.09381,15.2502921 135.09381,16.4010471 C135.09381,17.5507296 136.040797,18.4977162 137.191015,18.4977162 C138.836713,18.4977162 140.396613,19.1551373 141.55005,20.305356 C142.741022,21.4968647 143.357689,23.0192288 143.357689,24.6611728 C143.357689,28.0732204 140.603063,30.869673 137.191015,30.869673 Z M127.37367,14.3038417 L124.453348,14.3038417 L124.453348,28.8137575 C124.453348,29.9232226 123.551405,30.869673 122.401186,30.869673 C121.28904,30.869673 120.386561,29.9232226 120.386561,28.8137575 L120.386561,14.3038417 L117.425485,14.3038417 C116.316556,14.3038417 115.411395,13.3600724 115.411395,12.2484624 C115.411395,11.1389973 116.316556,10.2338368 117.425485,10.2338368 L120.386561,10.2338368 L120.386561,2.01446472 C120.386561,0.90553586 121.28904,0.000375362765 122.401186,0.000375362765 C123.551405,0.000375362765 124.453348,0.90553586 124.453348,2.01446472 L124.453348,10.2338368 L127.37367,10.2338368 C128.523353,10.2338368 129.42905,11.1389973 129.42905,12.2484624 C129.42905,13.3600724 128.523353,14.3038417 127.37367,14.3038417 Z M115.586207,28.7724676 C115.586207,29.9232226 114.68051,30.8283831 113.530292,30.8283831 C112.421363,30.8283831 111.516202,29.9232226 111.516202,28.7724676 L111.516202,20.5123418 C111.516202,17.0579319 108.71975,14.2620155 105.26963,14.2620155 C101.815756,14.2620155 99.0203758,17.0579319 99.0203758,20.5123418 L99.0203758,28.7724676 C99.0203758,29.9232226 98.1178965,30.8283831 96.9644603,30.8283831 C95.8555314,30.8283831 94.950371,29.9232226 94.950371,28.7724676 L94.950371,20.5123418 C94.950371,14.7966393 99.5952171,10.1925469 105.26963,10.1925469 C110.940825,10.1925469 115.586207,14.7966393 115.586207,20.5123418 L115.586207,28.7724676 Z M88.5418561,12.2484624 C88.5418561,11.1389973 89.4470166,10.2338368 90.5972353,10.2338368 C91.7061642,10.2338368 92.6118609,11.1389973 92.6118609,12.2484624 L92.6118609,28.8137575 C92.6118609,29.9639762 91.7061642,30.869673 90.5972353,30.869673 C89.4470166,30.869673 88.5418561,29.9639762 88.5418561,28.8137575 L88.5418561,12.2484624 Z M88.5418561,4.11167011 C88.5418561,3.57436512 88.7895955,3.04081376 89.1579872,2.67188579 C89.5295964,2.30027665 90.063684,2.05575462 90.5972353,2.05575462 C91.1313229,2.05575462 91.6648743,2.30027665 92.0370197,2.67188579 C92.4054114,3.04081376 92.6118609,3.57436512 92.6118609,4.11167011 C92.6118609,4.64522147 92.4054114,5.17877283 92.0370197,5.5477008 C91.6648743,5.91930994 91.1313229,6.12575946 90.5972353,6.12575946 C90.063684,6.12575946 89.5295964,5.91930994 89.1579872,5.5477008 C88.7895955,5.17877283 88.5418561,4.64522147 88.5418561,4.11167011 Z M75.8937396,26.7583782 C79.3438596,26.7583782 82.139776,23.9211719 82.139776,20.5123418 C82.139776,17.0579319 79.3438596,14.2620155 75.8937396,14.2620155 C72.4398659,14.2620155 69.6439495,17.0579319 69.6439495,20.5123418 C69.6439495,23.9211719 72.4398659,26.7583782 75.8937396,26.7583782 Z M75.8937396,10.1925469 C81.6056884,10.1925469 86.2097808,14.7966393 86.2097808,20.5123418 C86.2097808,26.1830007 81.6056884,30.8283831 75.8937396,30.8283831 C70.2187908,30.8283831 65.5739447,26.1830007 65.5739447,20.5123418 C65.5739447,14.7966393 70.2187908,10.1925469 75.8937396,10.1925469 Z M46.6347482,20.7155739 C46.6347482,24.1276215 49.4306646,26.9235378 52.8840021,26.9235378 C56.3378757,26.9235378 59.1305747,24.1276215 59.1305747,20.6737478 C59.1305747,17.2649176 56.3378757,14.4277114 52.8840021,14.4277114 C49.4306646,14.4277114 46.6347482,17.2236277 46.6347482,20.6737478 L46.6347482,20.7155739 Z M46.6347482,39.1297987 C46.6347482,40.2424812 45.7322689,41.1444243 44.6201227,41.1444243 C43.4704401,41.1444243 42.5647434,40.2424812 42.5647434,39.1297987 L42.5647434,20.7155739 L42.5647434,20.6737478 C42.5647434,15.0025526 47.2095895,10.3577065 52.8840021,10.3577065 C58.5970233,10.3577065 63.2005795,15.0025526 63.2005795,20.6737478 C63.2005795,26.3899865 58.5970233,30.9935427 52.8840021,30.9935427 C50.5395935,30.9935427 48.3630257,30.2122519 46.6347482,28.8963373 L46.6347482,39.1297987 Z M35.9910689,2.05575462 C35.9910689,0.944144602 36.8967656,0.0411290344 38.0469844,0.0411290344 C39.155377,0.0411290344 40.0610738,0.944144602 40.0610738,2.05575462 L40.0610738,28.8137575 C40.0610738,29.9639762 39.155377,30.869673 38.0469844,30.869673 C36.8967656,30.869673 35.9910689,29.9639762 35.9910689,28.8137575 L35.9910689,2.05575462 Z M29.3761045,12.2484624 C29.3761045,11.1389973 30.2818012,10.2338368 31.43202,10.2338368 C32.5404126,10.2338368 33.4461094,11.1389973 33.4461094,12.2484624 L33.4461094,28.8137575 C33.4461094,29.9639762 32.5404126,30.869673 31.43202,30.869673 C30.2818012,30.869673 29.3761045,29.9639762 29.3761045,28.8137575 L29.3761045,12.2484624 Z M29.3761045,4.11167011 C29.3761045,3.57436512 29.6238439,3.04081376 29.9927719,2.67188579 C30.3643811,2.30027665 30.8979324,2.05575462 31.43202,2.05575462 C31.9655714,2.05575462 32.499659,2.30027665 32.8712681,2.67188579 C33.2396598,3.04081376 33.4461094,3.57436512 33.4461094,4.11167011 C33.4461094,4.64522147 33.2396598,5.17877283 32.8712681,5.5477008 C32.499659,5.91930994 31.9655714,6.12575946 31.43202,6.12575946 C30.8979324,6.12575946 30.3643811,5.91930994 29.9927719,5.5477008 C29.6238439,5.17877283 29.3761045,4.64522147 29.3761045,4.11167011 Z M16.727988,26.7583782 C20.1781081,26.7583782 22.9745607,23.9211719 22.9745607,20.5123418 C22.9745607,17.0579319 20.1781081,14.2620155 16.727988,14.2620155 C13.2741143,14.2620155 10.478198,17.0579319 10.478198,20.5123418 C10.478198,23.9211719 13.2741143,26.7583782 16.727988,26.7583782 Z M16.727988,10.1925469 C22.4404731,10.1925469 27.0440293,14.7966393 27.0440293,20.5123418 C27.0440293,26.1830007 22.4404731,30.8283831 16.727988,30.8283831 C11.0535755,30.8283831 6.40872936,26.1830007 6.40872936,20.5123418 C6.40872936,14.7966393 11.0535755,10.1925469 16.727988,10.1925469 Z M0.000214493009,2.05575462 C0.000214493009,0.944144602 0.90537499,0.0411290344 2.05559375,0.0411290344 C3.16452261,0.0411290344 4.07021934,0.944144602 4.07021934,2.05575462 L4.07021934,28.8137575 C4.07021934,29.9639762 3.16452261,30.869673 2.05559375,30.869673 C0.90537499,30.869673 0.000214493009,29.9639762 0.000214493009,28.8137575 L0.000214493009,2.05575462 Z" id="Fill-1" fill="#58B956" mask="url(#mask-2)"></path>
                    </g>
                </g>
                <g id="Group">
                    <path d="M15.4673127,-2.23820962e-13 C24.0096736,-2.25390168e-13 30.9346254,6.92495178 30.9346254,15.4673127 C30.9346254,24.0096736 24.0096736,30.9346254 15.4673127,30.9346254 L2.8372093,30.9346254 C1.27026187,30.9346254 1.59624852e-12,29.6643636 1.59516844e-12,28.0974161 L1.59516844e-12,15.4673127 C1.5941223e-12,6.92495178 6.92495178,-2.22251756e-13 15.4673127,-2.23820962e-13 Z" id="Rectangle" fill="#58B956"></path>
                    <g id="Fill-2" transform="translate(7.093023, 7.093023)" fill="#FFFFFF">
                        <path d="M8.30571297,11.5120678 L13.5312275,11.5120678 C14.1046182,11.5120678 14.5694371,11.0472489 14.5694371,10.4738581 C14.5694371,9.90046731 14.1046182,9.43564842 13.5312275,9.43564842 L8.30571297,9.43564842 L6.22929362,9.43564842 L4.02309806,9.43564842 L4.02309806,9.43892744 C1.68384728,9.51128441 -0.174699602,11.526204 0.0130787763,13.9214895 C0.17061733,15.9314541 1.78921303,17.5589396 3.79844896,17.7265338 C6.17602781,17.924805 8.18533661,16.1064079 8.30039367,13.7976155 L8.30571297,13.7976155 L8.30571297,12.1621147 L6.22907502,12.1621147 L6.22907502,13.5844066 L6.22929362,13.5884871 C6.22929362,14.733447 5.2977613,15.6649065 4.15287427,15.6649065 C3.00791437,15.6649065 2.07645492,14.733447 2.07645492,13.5884871 C2.07645492,12.4533643 2.99239369,11.5293373 4.12380032,11.5135251 L4.12380032,11.5112662 L6.22907502,11.5112662 L8.30571297,11.5120678 Z M8.30666024,6.22920692 L8.30666024,4.17224307 C8.30658737,4.16568504 8.30571297,4.1593456 8.30571297,4.15286044 C8.30571297,3.00790054 9.23717242,2.07644109 10.3821323,2.07644109 C11.5270193,2.07644109 12.4585517,3.00790054 12.4585517,4.15286044 C12.4585517,5.297456 11.5275294,6.22869685 10.3830796,6.22920692 L10.3830796,6.22920692 L8.99437942,6.22920692 L8.99437942,8.30569913 L10.296805,8.30569913 C12.5261723,8.30569913 14.4792277,6.48511598 14.5337323,4.25633164 C14.5917344,1.88487362 12.6504106,-0.0565959542 10.2788797,0.00126048044 C8.0500225,0.0556192969 6.22929362,2.00860187 6.22929362,4.23818775 L6.22929362,6.22920692 L6.22929362,8.30569913 L6.22929362,8.75208266 L8.30571297,8.75208266 L8.30571297,8.30569913 L8.30666024,6.22920692 Z M5.57975677,6.22920692 L1.04626062,6.22920692 C0.472796971,6.22920692 0.00797808303,6.69409867 0.00797808303,7.26748946 C0.00797808303,7.84088025 0.472796971,8.30569913 1.04626062,8.30569913 L5.57975677,8.30569913 L5.57975677,6.22920692 Z" id="Fill-1"></path>
                    </g>
                </g>
            </g>
        </g>
    </g>
</svg>

<svg xmlns="http://www.w3.org/2000/svg" xmlns:xlink="http://www.w3.org/1999/xlink" width="182" height="42" viewBox="0 0 182 42"><title>Logo_Small</title><defs><path id="a" d="M0 0h143.357v43.245H0z"/></defs><g fill="none" fill-rule="evenodd"><g transform="translate(38.302)"><mask id="b" fill="#fff"><use xlink:href="#a"/></mask><path fill="#58B956" d="M137.191 30.87c-2.917 0-5.261-2.098-6.043-4.48-.369-1.07.495-2.18 1.563-2.428 1.109-.203 1.89.579 2.424 1.605.575 1.068 1.071 1.233 2.056 1.233 1.15 0 2.097-.944 2.097-2.139 0-1.15-.947-2.093-2.097-2.093a6.15 6.15 0 0 1-4.356-1.811c-1.192-1.15-1.808-2.714-1.808-4.356a6.156 6.156 0 0 1 6.164-6.167c2.879 0 5.51 1.973 5.919 4.276.206 1.11-.451 2.218-1.56 2.425-1.112.247-2.055-.493-2.427-1.522-.245-.658-.944-1.11-1.932-1.11-1.15 0-2.097.947-2.097 2.098 0 1.15.947 2.097 2.097 2.097 1.646 0 3.206.657 4.359 1.807a6.064 6.064 0 0 1 1.808 4.356c0 3.412-2.755 6.209-6.167 6.209zm-9.817-16.566h-2.92v14.51a2.06 2.06 0 0 1-2.053 2.056c-1.112 0-2.014-.947-2.014-2.056v-14.51h-2.962c-1.108 0-2.014-.944-2.014-2.056 0-1.109.906-2.014 2.014-2.014h2.962v-8.22c0-1.108.902-2.014 2.014-2.014 1.15 0 2.052.906 2.052 2.014v8.22h2.92c1.15 0 2.056.905 2.056 2.014a2.061 2.061 0 0 1-2.055 2.056zm-11.788 14.468c0 1.151-.905 2.056-2.056 2.056-1.109 0-2.014-.905-2.014-2.056v-8.26a6.247 6.247 0 0 0-6.246-6.25 6.247 6.247 0 0 0-6.25 6.25v8.26c0 1.151-.902 2.056-2.056 2.056-1.108 0-2.014-.905-2.014-2.056v-8.26c0-5.715 4.645-10.32 10.32-10.32 5.67 0 10.316 4.605 10.316 10.32v8.26zM88.542 12.248c0-1.109.905-2.014 2.055-2.014a2.02 2.02 0 0 1 2.015 2.014v16.566c0 1.15-.906 2.056-2.015 2.056a2.037 2.037 0 0 1-2.055-2.056V12.248zm0-8.136c0-.538.248-1.071.616-1.44.372-.372.906-.616 1.44-.616.533 0 1.067.244 1.439.616.368.369.575.902.575 1.44 0 .533-.207 1.067-.575 1.436a2.056 2.056 0 0 1-1.44.578 2.055 2.055 0 0 1-1.439-.578c-.368-.37-.616-.903-.616-1.436zM75.894 26.758c3.45 0 6.246-2.837 6.246-6.246a6.246 6.246 0 0 0-6.246-6.25 6.247 6.247 0 0 0-6.25 6.25c0 3.41 2.796 6.246 6.25 6.246zm0-16.565a10.298 10.298 0 0 1 10.316 10.32c0 5.67-4.604 10.315-10.316 10.315-5.675 0-10.32-4.645-10.32-10.316 0-5.715 4.645-10.32 10.32-10.32zm-29.26 10.523c0 3.412 2.797 6.208 6.25 6.208a6.244 6.244 0 0 0 6.247-6.25c0-3.41-2.793-6.246-6.247-6.246a6.246 6.246 0 0 0-6.25 6.246v.042zm0 18.414a2.015 2.015 0 0 1-2.014 2.014c-1.15 0-2.055-.902-2.055-2.014V20.674c0-5.671 4.645-10.316 10.319-10.316 5.713 0 10.317 4.645 10.317 10.316 0 5.716-4.604 10.32-10.317 10.32a10.3 10.3 0 0 1-6.25-2.098V39.13zM35.992 2.056c0-1.112.906-2.015 2.056-2.015 1.108 0 2.014.903 2.014 2.015v26.758c0 1.15-.906 2.056-2.014 2.056a2.037 2.037 0 0 1-2.056-2.056V2.056zm-6.615 10.192c0-1.109.906-2.014 2.056-2.014 1.108 0 2.014.905 2.014 2.014v16.566c0 1.15-.906 2.056-2.014 2.056a2.037 2.037 0 0 1-2.056-2.056V12.248zm0-8.136c0-.538.248-1.071.617-1.44.371-.372.905-.616 1.439-.616s1.068.244 1.44.616c.368.369.574.902.574 1.44 0 .533-.206 1.067-.575 1.436a2.055 2.055 0 0 1-1.439.578 2.054 2.054 0 0 1-1.44-.578c-.368-.37-.616-.903-.616-1.436zM16.728 26.758c3.45 0 6.247-2.837 6.247-6.246a6.247 6.247 0 0 0-6.247-6.25 6.247 6.247 0 0 0-6.25 6.25c0 3.41 2.796 6.246 6.25 6.246zm0-16.565a10.298 10.298 0 0 1 10.316 10.32c0 5.67-4.604 10.315-10.316 10.315-5.674 0-10.32-4.645-10.32-10.316 0-5.715 4.646-10.32 10.32-10.32zM0 2.056C0 .944.905.04 2.056.04c1.109 0 2.014.903 2.014 2.015v26.758c0 1.15-.905 2.056-2.014 2.056A2.037 2.037 0 0 1 0 28.814V2.056z" mask="url(#b)"/></g><path fill="#58B956" d="M15.467 0c8.543 0 15.468 6.925 15.468 15.467 0 8.543-6.925 15.468-15.468 15.468H2.837A2.837 2.837 0 0 1 0 28.097v-12.63C0 6.925 6.925 0 15.467 0z"/><path fill="#FFF" d="M15.399 18.605h5.225a1.038 1.038 0 1 0 0-2.076h-9.508v.003a4.157 4.157 0 0 0-4.01 4.483 4.166 4.166 0 0 0 3.785 3.805 4.158 4.158 0 0 0 4.502-3.93h.006v-1.635h-2.077V20.682a2.079 2.079 0 0 1-2.076 2.076 2.079 2.079 0 0 1-2.077-2.076c0-1.136.916-2.06 2.048-2.075v-.003h2.105l2.077.001zm0-5.283v-2.057-.02c0-1.144.931-2.076 2.076-2.076s2.077.932 2.077 2.077a2.079 2.079 0 0 1-2.076 2.076h-1.389V15.4h1.303c2.23 0 4.182-1.82 4.237-4.05a4.157 4.157 0 0 0-4.255-4.255c-2.229.055-4.05 2.008-4.05 4.237V15.845H15.4v-2.523zm-2.726 0H8.139a1.038 1.038 0 0 0 0 2.077h4.534v-2.077z"/></g></svg>
